X: 1
T: We Are Coming Father Abraham
P: piffero primo a0736
O: an Ohio volunteer
%R: song, march
F: http://ancients.sudburymuster.org/mus/sng/pdf/wearecoming1C0.pdf
F: http://ancients.sudburymuster.org/mus/sng/pdf/wearecomingC0.pdf
Z: 2020 John Chambers <jc:trillian.mit.edu>
M: 4/4
L: 1/8
K: D
AB |\
d<ddd BAFA | f<fee d2cd | e<def gfed | e<dcB A2AB |\
d<ddd BAFA | f<fee d2ef | g<fga bBBB | a<gfe d2 ||
fg |\
afab a2fe | dBBB c2Bc | d<ddd BAFA | B<ABd e2 |]\
AB |\
d<dAB d<d fg | a<agf e2ef | g<fga bBBB | a<gfe d2 :]
